packages/admin/admin-icons/icons/delete.svg

<svg xmlns="http://www.w3.org/2000/svg" width="16" height="16" viewBox="0 0 16 16"><path fill="#242424" fill-rule="evenodd" d="M13,3.5 C13.2454599,3.5 13.4496084,3.67687516 13.4919443,3.91012437 L13.5,4 L13.5,13.5 C13.5,14.8254834 12.4684641,15.9100387 11.1643757,15.9946823 L11,16 L5,16 C3.6745166,16 2.58996133,14.9684641 2.50531768,13.6643757 L2.5,13.5 L2.5,4 C2.5,3.72385763 2.72385763,3.5 3,3.5 C3.24545989,3.5 3.44960837,3.67687516 3.49194433,3.91012437 L3.5,4 L3.5,13.5 C3.5,14.2796961 4.09488808,14.9204487 4.85553999,14.9931334 L5,15 L11,15 C11.7796961,15 12.4204487,14.4051119 12.4931334,13.64446 L12.5,13.5 L12.5,4 C12.5,3.72385763 12.7238576,3.5 13,3.5 Z M8,5 C8.24545989,5 8.44960837,5.17687516 8.49194433,5.41012437 L8.5,5.5 L8.5,12 C8.5,12.2761424 8.27614237,12.5 8,12.5 C7.75454011,12.5 7.55039163,12.3231248 7.50805567,12.0898756 L7.5,12 L7.5,5.5 C7.5,5.22385763 7.72385763,5 8,5 Z M5.5,5 C5.74545989,5 5.94960837,5.17687516 5.99194433,5.41012437 L6,5.5 L6,12 C6,12.2761424 5.77614237,12.5 5.5,12.5 C5.25454011,12.5 5.05039163,12.3231248 5.00805567,12.0898756 L5,12 L5,5.5 C5,5.22385763 5.22385763,5 5.5,5 Z M10.5,5 C10.7454599,5 10.9496084,5.17687516 10.9919443,5.41012437 L11,5.5 L11,12 C11,12.2761424 10.7761424,12.5 10.5,12.5 C10.2545401,12.5 10.0503916,12.3231248 10.0080557,12.0898756 L10,12 L10,5.5 C10,5.22385763 10.2238576,5 10.5,5 Z M9.5,0 C9.6060866,0 9.70869717,0.0337141889 9.79350724,0.0952091774 L9.85355339,0.146446609 L11.207,1.5 L14,1.5 C14.2454599,1.5 14.4496084,1.67687516 14.4919443,1.91012437 L14.5,2 C14.5,2.24545989 14.3231248,2.44960837 14.0898756,2.49194433 L14,2.5 L11,2.5 C10.8939134,2.5 10.7913028,2.46628581 10.7064928,2.40479082 L10.6464466,2.35355339 L9.293,1 L6.706,1 L5.35355339,2.35355339 C5.27853884,2.42856794 5.18214268,2.47728504 5.07868937,2.4937713 L5,2.5 L2,2.5 C1.72385763,2.5 1.5,2.27614237 1.5,2 C1.5,1.75454011 1.67687516,1.55039163 1.91012437,1.50805567 L2,1.5 L4.792,1.5 L6.14644661,0.146446609 C6.22146116,0.071432058 6.31785732,0.0227149588 6.42131063,0.00622870121 L6.5,0 L9.5,0 Z"/></svg>

<svg width="16" height="16" fill="none" viewBox="0 0 16 16">
  <path fill="#242424" d="M9.5 0a.5.5 0 0 1 .294.095l.06.051L11.207 1.5H14a.5.5 0 0 1 .492.41L14.5 2a.5.5 0 0 1-.41.492L14 2.5h-3a.5.5 0 0 1-.293-.095l-.06-.051L9.292 1H6.706L5.354 2.354a.5.5 0 0 1-.275.14L5 2.5H2a.5.5 0 0 1-.09-.992L2 1.5h2.792L6.146.146a.5.5 0 0 1 .275-.14L6.5 0h3ZM13 3.5a.5.5 0 0 1 .492.41L13.5 4v9.5a2.5 2.5 0 0 1-2.336 2.495L11 16H5a2.5 2.5 0 0 1-2.495-2.336L2.5 13.5V4a.5.5 0 0 1 .992-.09L3.5 4v9.5a1.5 1.5 0 0 0 1.356 1.493L5 15h6a1.5 1.5 0 0 0 1.493-1.355l.007-.145V4a.5.5 0 0 1 .5-.5Z M8.492 5.41a.5.5 0 0 0-.992.09V12l.008.09A.5.5 0 0 0 8.5 12V5.5l-.008-.09ZM5.5 5a.5.5 0 0 1 .492.41L6 5.5V12a.5.5 0 0 1-.992.09L5 12V5.5a.5.5 0 0 1 .5-.5Zm5.492.41A.5.5 0 0 0 10 5.5V12l.008.09A.5.5 0 0 0 11 12V5.5l-.008-.09Z"/>
</svg>
